!!!COM: Prokofiev, Sergey (Sergeyevich)
!!!OTL: String Quartet No. 1, op. 50
!!!OMV: III: Andante
!!!example: 578
!!!work: Pro-24
**kern	**dynam	**kern	**dynam	**kern	**dynam	**kern	**dynam
*part4	*part4	*part3	*part3	*part2	*part2	*part1	*part1
*staff4	*	*staff3	*	*staff2	*	*staff1	*
*I"Violoncello	*	*I"Viola	*	*I"Violin II	*	*I"Violin I	*
*I'Vc.	*	*I'Vla.	*	*I'Vln. II	*	*I'Vln. I	*
*clefF4	*	*clefC3	*	*clefG2	*	*clefG2	*
*k[f#c#g#]	*	*k[f#c#g#]	*	*k[f#c#g#]	*	*k[f#c#g#]	*
*A:	*	*A:	*	*A:	*	*A:	*
*M9/8	*	*M9/8	*	*M9/8	*	*M9/8	*
=54	=	=	=	=	=	=	=
(4A	pp	4.r	.	8aL	pp	(4cc#	pp
.	.	.	.	(8e	.	.	.
8C#)	.	.	.	8aJ)	.	[8ff#	.
2.FF#	.	4.r	.	(8eL	.	8ff#L]	.
.	.	.	.	8c#)	.	8ffn)	.
.	.	.	.	8e~J	.	([8eeJ	.
.	.	8cc#~L	pp	4.A	.	8ee]	.
.	.	(8a	.	.	.	4aa)	.
.	.	8cc#J)	.	.	.	.	.
=55	=55	=55	=55	=55	=55	=55	=55
8E~L	.	(8aL	.	8%9r	.	(8gg#L	.
(8A	.	8e	.	.	.	8cc#	.
8EJ)	.	8aJ	.	.	.	[8ff#J	.
(8C#L	.	8eL)	.	.	.	8ff#])	.
8E)	.	(8c#	.	.	.	(4aa	.
8C#~J	.	8eJ)	.	.	.	.	.
(8GG#L	.	(8c#L	.	.	.	4bb	.
8C#	.	8G#	.	.	.	.	.
8GG#J)	.	8c#J)	.	.	.	8ee)	.
=56	=56	=56	=56	=56	=56	=56	=56
[2.CC#	.	[2.E	.	8aa~L	.	(8ccc#L	.
.	.	.	.	(8ee	.	8eee)	.
.	.	.	.	8gg#J)	.	[8bbJ	.
.	.	.	.	(8eeL	.	8bbL]	.
.	.	.	.	8cc#)	.	8ccc#~	.
.	.	.	.	8g#~J	.	([8bbJ	.
4.CC#]	.	4.E]	.	(8cc#L	.	8bb]	.
.	.	.	.	8g#	.	4ee)	.
.	.	.	.	8eJ)	.	.	.
=57	=57	=57	=57	=57	=57	=57	=57
!!linebreak:original
(4DD	.	2.c#	.	(4.a	.	(8ee#X	.
.	.	.	.	.	.	4ccc#)	.
8FF#)	.	.	.	.	.	.	.
(8AAL	.	.	.	4.a#X)	.	(8ff#L	.
8F#	.	.	.	.	.	8ddd	.
8AnJ)	.	.	.	.	.	8ccc#J)	.
(4d	.	[4.d	.	[4.b	.	4.bb~	.
8c#)	.	.	.	.	.	.	.
=58	=58	=58	=58	=58	=58	=58	=58
(8BL	p	8dL]	.	8bL]	.	8%9r	.
8E)	.	(8A#X	p	(8cc#	p	.	.
[8GG#J	.	8BJ)	.	[8ddJ	.	.	.
8GG#L]	.	(4c#	.	8dd])	.	.	.
(8E	.	.	.	4ff#~	.	.	.
[8BJ	.	8d)	.	.	.	.	.
8BL])	.	(8eL	.	(4dd	.	.	.
(8E-X	.	8f#	.	.	.	.	.
8DJ)	.	8gnJ)	.	8b)	.	.	.
=59	=59	=59	=59	=59	=59	=59	=59
(8AAL	.	(8g#X	.	(8ff#	<	(8B#XL	<
8C#)	.	4a)	.	4cc#)	.	8c#	.
[8FF#J	<	.	.	.	.	8d#XJ)	.
4.FF#]	.	(8F#L	<	(8aa	.	(8e#XL	.
.	.	8A)	.	4dd)	.	8f#	.
.	.	([8DJ	[	.	.	8a#XJ)	.
(8GGnL	[	8DL]	>	[4.bb	[	(8cc#L	[
8BB	.	8Gn	.	.	.	8.ddn	.
8BB#XJ)	[	8dJ)	]	.	.	.	.
.	.	.	.	.	.	16eenJk)	[
=60	=60	=60	=60	=60	=60	=60	=60
!!linebreak:original
(8DD#X	p	(4b	p	8bbL]	.	4dd~	p
4EE)	.	.	.	(8aa	p	.	.
.	.	8g#X)	.	[8ff#J	.	8b~	.
(4E	.	(4a	.	8ff#L])	.	(4cc#	.
.	.	.	.	(8gg#	.	.	.
8GG#)	.	8f#)	.	[8eeJ	.	8a)	.
(4EE	.	(8g#	.	8eeL]	.	(8b	.
.	.	4gn)	.	8dd	.	4b-X	.
8CC#)	.	.	.	8eeJ)	.	.	.
=61	=61	=61	=61	=61	=61	=61	=61
(8DD^L	.	4.f#	.	2.ff#	.	4a)	.
8FF#	.	.	.	.	.	.	.
8AAJ)	.	.	.	.	.	([8ff#	p
(8DnL	<	(8DL	.	.	.	8ff#L]	.
8C#)	.	8E)	.	.	.	8gg#	.
[8BBJ	.	[8F#J	<	.	.	[8aaJ	.
8BBL]	.	8F#L]	.	4.cc#	[[	8aaL])	<
(8AA#X	.	(8c#	.	.	.	(8aa#X	.
8GG#J)	[	8g#J)	[[	.	.	[8bbnJ	[[
=62	=62	=62	=62	=62	=62	=62	=62
(8GGnL	mf	(8b	[	(8dd	[	8bbL])	[
8BB	.	4a)	.	4cc#)	.	(8aa#X	.
8DJ	.	.	.	.	.	[8ff#J	.
8EL)	>	(8a	>	(8cc#	>	8ff#L])	>
(8G#X	.	4g#)	.	4b)	.	(8gg#	.
8BJ)	.	.	.	.	.	[8eeJ	.
(4c#	.	(8g#	.	(8b	.	8eeL]	.
.	.	4gn)	]]	4b-X)	]]	8dd	.
8e)	]	.	.	.	.	8eeJ)	]
==	==	==	==	==	==	==	==
*-	*-	*-	*-	*-	*-	*-	*-
!!!CDT: 1891/04/23-1953/03/05
!!!CBL: Sontsovka, Ukraine
!!!CDL: Moscow, Russia
!!!CNT: Russian
!!!AGN: Instrumental; Chamber
!!!MCN:
!!!MDT: 1931/04/25
!!!MGN: Brosa Quartet
!!!MLC: Washington, D.C., United States of America
!!!MPD: 1931
!!!MPN:
!!!ODT: 1930
!!!PDT: 1931
!!!excerpt-start-measure: 54
!!!excerpt-end-measure: 62
!!!excerpt-start-time: 3:33
!!!excerpt-end-time: 4:11
!!!EEV: 2020/01/17
!!!system-decoration: [(s1,s2,s3,s4)]
!!!ONB: Converted from MusicXML on 2020/01/17
